bernoullicharts/1_3_x_1_1_3_x__bound.svg

<?xml version="1.0" encoding="utf-8" standalone="no"?>
<!DOCTYPE svg PUBLIC "-//W3C//DTD SVG 1.1//EN"
  "http://www.w3.org/Graphics/SVG/1.1/DTD/svg11.dtd">
<!-- Created with matplotlib (https://matplotlib.org/) -->
<svg height="345.6pt" version="1.1" viewBox="0 0 460.8 345.6" width="460.8pt" xmlns="http://www.w3.org/2000/svg" xmlns:xlink="http://www.w3.org/1999/xlink">
 <defs>
  <style type="text/css">
*{stroke-linecap:butt;stroke-linejoin:round;}
  </style>
 </defs>
 <g id="figure_1">
  <g id="patch_1">
   <path d="M 0 345.6 
L 460.8 345.6 
L 460.8 0 
L 0 0 
z
" style="fill:#ffffff;"/>
  </g>
  <g id="axes_1">
   <g id="patch_2">
    <path d="M 57.6 307.584 
L 414.72 307.584 
L 414.72 41.472 
L 57.6 41.472 
z
" style="fill:#ffffff;"/>
   </g>
   <g id="matplotlib.axis_1">
    <g id="xtick_1">
     <g id="line2d_1">
      <defs>
       <path d="M 0 0 
L 0 3.5 
" id="m48df1a975f" style="stroke:#000000;stroke-width:0.8;"/>
      </defs>
      <g>
       <use style="stroke:#000000;stroke-width:0.8;" x="73.800255" xlink:href="#m48df1a975f" y="307.584"/>
      </g>
     </g>
     <g id="text_1">
      <text style="font-family:DejaVu Sans;font-size:10px;font-style:normal;font-weight:normal;text-anchor:middle;" transform="rotate(-0, 73.800255, 322.182437)" x="73.800255" y="322.182437">0.0</text>
     </g>
    </g>
    <g id="xtick_2">
     <g id="line2d_2">
      <g>
       <use style="stroke:#000000;stroke-width:0.8;" x="138.744153" xlink:href="#m48df1a975f" y="307.584"/>
      </g>
     </g>
     <g id="text_2">
      <text style="font-family:DejaVu Sans;font-size:10px;font-style:normal;font-weight:normal;text-anchor:middle;" transform="rotate(-0, 138.744153, 322.182437)" x="138.744153" y="322.182437">0.2</text>
     </g>
    </g>
    <g id="xtick_3">
     <g id="line2d_3">
      <g>
       <use style="stroke:#000000;stroke-width:0.8;" x="203.688051" xlink:href="#m48df1a975f" y="307.584"/>
      </g>
     </g>
     <g id="text_3">
      <text style="font-family:DejaVu Sans;font-size:10px;font-style:normal;font-weight:normal;text-anchor:middle;" transform="rotate(-0, 203.688051, 322.182437)" x="203.688051" y="322.182437">0.4</text>
     </g>
    </g>
    <g id="xtick_4">
     <g id="line2d_4">
      <g>
       <use style="stroke:#000000;stroke-width:0.8;" x="268.631949" xlink:href="#m48df1a975f" y="307.584"/>
      </g>
     </g>
     <g id="text_4">
      <text style="font-family:DejaVu Sans;font-size:10px;font-style:normal;font-weight:normal;text-anchor:middle;" transform="rotate(-0, 268.631949, 322.182437)" x="268.631949" y="322.182437">0.6</text>
     </g>
    </g>
    <g id="xtick_5">
     <g id="line2d_5">
      <g>
       <use style="stroke:#000000;stroke-width:0.8;" x="333.575847" xlink:href="#m48df1a975f" y="307.584"/>
      </g>
     </g>
     <g id="text_5">
      <text style="font-family:DejaVu Sans;font-size:10px;font-style:normal;font-weight:normal;text-anchor:middle;" transform="rotate(-0, 333.575847, 322.182437)" x="333.575847" y="322.182437">0.8</text>
     </g>
    </g>
    <g id="xtick_6">
     <g id="line2d_6">
      <g>
       <use style="stroke:#000000;stroke-width:0.8;" x="398.519745" xlink:href="#m48df1a975f" y="307.584"/>
      </g>
     </g>
     <g id="text_6">
      <text style="font-family:DejaVu Sans;font-size:10px;font-style:normal;font-weight:normal;text-anchor:middle;" transform="rotate(-0, 398.519745, 322.182437)" x="398.519745" y="322.182437">1.0</text>
     </g>
    </g>
    <g id="text_7">
     <text style="font-family:DejaVu Sans;font-size:10px;font-style:normal;font-weight:normal;text-anchor:middle;" transform="rotate(-0, 236.16, 335.860562)" x="236.16" y="335.860562">Input Coin's Heads Probability (λ)</text>
    </g>
   </g>
   <g id="matplotlib.axis_2">
    <g id="ytick_1">
     <g id="line2d_7">
      <defs>
       <path d="M 0 0 
L -3.5 0 
" id="m15a33dc699" style="stroke:#000000;stroke-width:0.8;"/>
      </defs>
      <g>
       <use style="stroke:#000000;stroke-width:0.8;" x="57.6" xlink:href="#m15a33dc699" y="295.499876"/>
      </g>
     </g>
     <g id="text_8">
      <text style="font-family:DejaVu Sans;font-size:10px;font-style:normal;font-weight:normal;text-anchor:end;" transform="rotate(-0, 50.6, 299.299094)" x="50.6" y="299.299094">0.00</text>
     </g>
    </g>
    <g id="ytick_2">
     <g id="line2d_8">
      <g>
       <use style="stroke:#000000;stroke-width:0.8;" x="57.6" xlink:href="#m15a33dc699" y="263.8334"/>
      </g>
     </g>
     <g id="text_9">
      <text style="font-family:DejaVu Sans;font-size:10px;font-style:normal;font-weight:normal;text-anchor:end;" transform="rotate(-0, 50.6, 267.632618)" x="50.6" y="267.632618">0.05</text>
     </g>
    </g>
    <g id="ytick_3">
     <g id="line2d_9">
      <g>
       <use style="stroke:#000000;stroke-width:0.8;" x="57.6" xlink:href="#m15a33dc699" y="232.166924"/>
      </g>
     </g>
     <g id="text_10">
      <text style="font-family:DejaVu Sans;font-size:10px;font-style:normal;font-weight:normal;text-anchor:end;" transform="rotate(-0, 50.6, 235.966143)" x="50.6" y="235.966143">0.10</text>
     </g>
    </g>
    <g id="ytick_4">
     <g id="line2d_10">
      <g>
       <use style="stroke:#000000;stroke-width:0.8;" x="57.6" xlink:href="#m15a33dc699" y="200.500448"/>
      </g>
     </g>
     <g id="text_11">
      <text style="font-family:DejaVu Sans;font-size:10px;font-style:normal;font-weight:normal;text-anchor:end;" transform="rotate(-0, 50.6, 204.299667)" x="50.6" y="204.299667">0.15</text>
     </g>
    </g>
    <g id="ytick_5">
     <g id="line2d_11">
      <g>
       <use style="stroke:#000000;stroke-width:0.8;" x="57.6" xlink:href="#m15a33dc699" y="168.833972"/>
      </g>
     </g>
     <g id="text_12">
      <text style="font-family:DejaVu Sans;font-size:10px;font-style:normal;font-weight:normal;text-anchor:end;" transform="rotate(-0, 50.6, 172.633191)" x="50.6" y="172.633191">0.20</text>
     </g>
    </g>
    <g id="ytick_6">
     <g id="line2d_12">
      <g>
       <use style="stroke:#000000;stroke-width:0.8;" x="57.6" xlink:href="#m15a33dc699" y="137.167496"/>
      </g>
     </g>
     <g id="text_13">
      <text style="font-family:DejaVu Sans;font-size:10px;font-style:normal;font-weight:normal;text-anchor:end;" transform="rotate(-0, 50.6, 140.966715)" x="50.6" y="140.966715">0.25</text>
     </g>
    </g>
    <g id="ytick_7">
     <g id="line2d_13">
      <g>
       <use style="stroke:#000000;stroke-width:0.8;" x="57.6" xlink:href="#m15a33dc699" y="105.50102"/>
      </g>
     </g>
     <g id="text_14">
      <text style="font-family:DejaVu Sans;font-size:10px;font-style:normal;font-weight:normal;text-anchor:end;" transform="rotate(-0, 50.6, 109.300239)" x="50.6" y="109.300239">0.30</text>
     </g>
    </g>
    <g id="ytick_8">
     <g id="line2d_14">
      <g>
       <use style="stroke:#000000;stroke-width:0.8;" x="57.6" xlink:href="#m15a33dc699" y="73.834545"/>
      </g>
     </g>
     <g id="text_15">
      <text style="font-family:DejaVu Sans;font-size:10px;font-style:normal;font-weight:normal;text-anchor:end;" transform="rotate(-0, 50.6, 77.633763)" x="50.6" y="77.633763">0.35</text>
     </g>
    </g>
    <g id="ytick_9">
     <g id="line2d_15">
      <g>
       <use style="stroke:#000000;stroke-width:0.8;" x="57.6" xlink:href="#m15a33dc699" y="42.168069"/>
      </g>
     </g>
     <g id="text_16">
      <text style="font-family:DejaVu Sans;font-size:10px;font-style:normal;font-weight:normal;text-anchor:end;" transform="rotate(-0, 50.6, 45.967287)" x="50.6" y="45.967287">0.40</text>
     </g>
    </g>
    <g id="text_17">
     <text style="font-family:DejaVu Sans;font-size:10px;font-style:normal;font-weight:normal;text-anchor:middle;" transform="rotate(-90, 22.254687, 174.528)" x="22.254687" y="174.528">Coin Flips Needed</text>
    </g>
   </g>
   <g id="line2d_16">
    <path clip-path="url(#pa1028d8b9a)" d="M 73.832727 84.425219 
L 77.112066 87.956696 
L 80.391405 91.445738 
L 83.670744 94.892959 
L 86.950083 98.298958 
L 90.229421 101.664326 
L 93.50876 104.989645 
L 96.788099 108.275484 
L 100.067438 111.522405 
L 103.346777 114.730959 
L 106.626116 117.901687 
L 109.905455 121.035122 
L 113.184793 124.131788 
L 116.464132 127.192199 
L 119.743471 130.216863 
L 123.02281 133.206276 
L 126.302149 136.160928 
L 129.581488 139.081299 
L 132.860826 141.967864 
L 136.140165 144.821088 
L 139.419504 147.641427 
L 142.698843 150.429333 
L 145.978182 153.185248 
L 149.257521 155.909607 
L 152.53686 158.60284 
L 155.816198 161.265366 
L 159.095537 163.897601 
L 162.374876 166.499954 
L 165.654215 169.072824 
L 168.933554 171.616606 
L 172.212893 174.13169 
L 175.492231 176.618458 
L 178.77157 179.077285 
L 182.050909 181.508542 
L 185.330248 183.912593 
L 188.609587 186.289797 
L 191.888926 188.640506 
L 195.168264 190.965069 
L 198.447603 193.263826 
L 201.726942 195.537114 
L 205.006281 197.785265 
L 208.28562 200.008604 
L 211.564959 202.207454 
L 214.844298 204.382129 
L 218.123636 206.532942 
L 221.402975 208.660198 
L 224.682314 210.764199 
L 227.961653 212.845243 
L 231.240992 214.903622 
L 234.520331 216.939624 
L 237.799669 218.953533 
L 241.079008 220.945628 
L 244.358347 222.916185 
L 247.637686 224.865474 
L 250.917025 226.793764 
L 254.196364 228.701316 
L 257.475702 230.588389 
L 260.755041 232.45524 
L 264.03438 234.30212 
L 267.313719 236.129275 
L 270.593058 237.936951 
L 273.872397 239.725388 
L 277.151736 241.494822 
L 280.431074 243.245488 
L 283.710413 244.977614 
L 286.989752 246.691429 
L 290.269091 248.387154 
L 293.54843 250.065011 
L 296.827769 251.725216 
L 300.107107 253.367982 
L 303.386446 254.993522 
L 306.665785 256.602042 
L 309.945124 258.193747 
L 313.224463 259.768839 
L 316.503802 261.327517 
L 319.78314 262.869977 
L 323.062479 264.396412 
L 326.341818 265.907012 
L 329.621157 267.401966 
L 332.900496 268.881459 
L 336.179835 270.345674 
L 339.459174 271.794789 
L 342.738512 273.228984 
L 346.017851 274.648433 
L 349.29719 276.053308 
L 352.576529 277.443781 
L 355.855868 278.820018 
L 359.135207 280.182185 
L 362.414545 281.530446 
L 365.693884 282.864961 
L 368.973223 284.18589 
L 372.252562 285.493388 
L 375.531901 286.787611 
L 378.81124 288.068711 
L 382.090579 289.336838 
L 385.369917 290.592141 
L 388.649256 291.834765 
L 391.928595 293.064855 
L 395.207934 294.282553 
L 398.487273 295.488 
" style="fill:none;stroke:#1f77b4;stroke-linecap:square;stroke-width:1.5;"/>
   </g>
   <g id="line2d_17">
    <path clip-path="url(#pa1028d8b9a)" d="M 73.832727 82.701158 
L 77.112066 73.834545 
L 80.391405 90.301112 
L 83.670744 100.434384 
L 86.950083 53.568 
L 90.229421 101.701043 
L 93.50876 96.634407 
L 96.788099 62.434613 
L 100.067438 87.767794 
L 103.346777 86.501135 
L 106.626116 70.034567 
L 109.905455 102.967702 
L 113.184793 59.901295 
L 116.464132 95.367748 
L 119.743471 85.234476 
L 123.02281 106.767679 
L 126.302149 123.234247 
L 129.581488 128.300883 
L 132.860826 89.034453 
L 136.140165 96.634407 
L 139.419504 100.434384 
L 142.698843 119.43427 
L 145.978182 100.434384 
L 149.257521 83.967817 
L 152.53686 89.034453 
L 155.816198 101.701043 
L 159.095537 81.434499 
L 162.374876 96.634407 
L 165.654215 97.901066 
L 168.933554 130.834201 
L 172.212893 106.767679 
L 175.492231 116.900952 
L 178.77157 139.700814 
L 182.050909 101.701043 
L 185.330248 99.167725 
L 188.609587 108.034338 
L 191.888926 118.167611 
L 195.168264 116.900952 
L 198.447603 119.43427 
L 201.726942 105.50102 
L 205.006281 95.367748 
L 208.28562 130.834201 
L 211.564959 108.034338 
L 214.844298 102.967702 
L 218.123636 96.634407 
L 221.402975 108.034338 
L 224.682314 113.100975 
L 227.961653 91.567771 
L 231.240992 105.50102 
L 234.520331 92.83443 
L 237.799669 121.967588 
L 241.079008 108.034338 
L 244.358347 119.43427 
L 247.637686 91.567771 
L 250.917025 139.700814 
L 254.196364 127.034224 
L 257.475702 127.034224 
L 260.755041 115.634293 
L 264.03438 128.300883 
L 267.313719 124.500906 
L 270.593058 102.967702 
L 273.872397 115.634293 
L 277.151736 92.83443 
L 280.431074 113.100975 
L 283.710413 114.367634 
L 286.989752 102.967702 
L 290.269091 111.834316 
L 293.54843 109.300998 
L 296.827769 108.034338 
L 300.107107 125.767565 
L 303.386446 102.967702 
L 306.665785 135.900837 
L 309.945124 96.634407 
L 313.224463 115.634293 
L 316.503802 148.567428 
L 319.78314 129.567542 
L 323.062479 116.900952 
L 326.341818 148.567428 
L 329.621157 128.300883 
L 332.900496 96.634407 
L 336.179835 119.43427 
L 339.459174 118.167611 
L 342.738512 114.367634 
L 346.017851 120.700929 
L 349.29719 137.167496 
L 352.576529 121.967588 
L 355.855868 123.234247 
L 359.135207 128.300883 
L 362.414545 129.567542 
L 365.693884 132.10086 
L 368.973223 132.10086 
L 372.252562 146.034109 
L 375.531901 149.834087 
L 378.81124 140.967473 
L 382.090579 147.300769 
L 385.369917 129.567542 
L 388.649256 125.767565 
L 391.928595 109.300998 
L 395.207934 149.834087 
L 398.487273 154.900723 
" style="fill:none;stroke:#ff7f0e;stroke-linecap:square;stroke-width:1.5;"/>
   </g>
   <g id="patch_3">
    <path d="M 57.6 307.584 
L 57.6 41.472 
" style="fill:none;stroke:#000000;stroke-linecap:square;stroke-linejoin:miter;stroke-width:0.8;"/>
   </g>
   <g id="patch_4">
    <path d="M 414.72 307.584 
L 414.72 41.472 
" style="fill:none;stroke:#000000;stroke-linecap:square;stroke-linejoin:miter;stroke-width:0.8;"/>
   </g>
   <g id="patch_5">
    <path d="M 57.6 307.584 
L 414.72 307.584 
" style="fill:none;stroke:#000000;stroke-linecap:square;stroke-linejoin:miter;stroke-width:0.8;"/>
   </g>
   <g id="patch_6">
    <path d="M 57.6 41.472 
L 414.72 41.472 
" style="fill:none;stroke:#000000;stroke-linecap:square;stroke-linejoin:miter;stroke-width:0.8;"/>
   </g>
   <g id="text_18">
    <text style="font-family:DejaVu Sans;font-size:12px;font-style:normal;font-weight:normal;text-anchor:middle;" transform="rotate(-0, 236.16, 35.472)" x="236.16" y="35.472">Coin Flips for (1/3)*x/(1+(1/3)*x)</text>
   </g>
   <g id="legend_1">
    <g id="patch_7">
     <path d="M 185.009062 78.82825 
L 407.72 78.82825 
Q 409.72 78.82825 409.72 76.82825 
L 409.72 48.472 
Q 409.72 46.472 407.72 46.472 
L 185.009062 46.472 
Q 183.009062 46.472 183.009062 48.472 
L 183.009062 76.82825 
Q 183.009062 78.82825 185.009062 78.82825 
z
" style="fill:#ffffff;opacity:0.8;stroke:#cccccc;stroke-linejoin:miter;"/>
    </g>
    <g id="line2d_18">
     <path d="M 187.009062 54.570437 
L 207.009062 54.570437 
" style="fill:none;stroke:#1f77b4;stroke-linecap:square;stroke-width:1.5;"/>
    </g>
    <g id="line2d_19"/>
    <g id="text_19">
     <text style="font-family:DejaVu Sans;font-size:10px;font-style:normal;font-weight:normal;text-anchor:start;" transform="rotate(-0, 215.009062, 58.070437)" x="215.009062" y="58.070437">Coin Flip Lower Bound</text>
    </g>
    <g id="line2d_20">
     <path d="M 187.009062 69.248562 
L 207.009062 69.248562 
" style="fill:none;stroke:#ff7f0e;stroke-linecap:square;stroke-width:1.5;"/>
    </g>
    <g id="line2d_21"/>
    <g id="text_20">
     <text style="font-family:DejaVu Sans;font-size:10px;font-style:normal;font-weight:normal;text-anchor:start;" transform="rotate(-0, 215.009062, 72.748562)" x="215.009062" y="72.748562">Avg. Coins Flipped (1/3)*x/(1+(1/3)*x)</text>
    </g>
   </g>
  </g>
 </g>
 <defs>
  <clipPath id="pa1028d8b9a">
   <rect height="266.112" width="357.12" x="57.6" y="41.472"/>
  </clipPath>
 </defs>
</svg>

<svg height="460.8" viewBox="0 0 460.8 345.6" width="614.4" xmlns="http://www.w3.org/2000/svg" xmlns:xlink="http://www.w3.org/1999/xlink"><defs><style>*{stroke-linecap:butt;stroke-linejoin:round}</style></defs><g id="figure_1"><path d="M0 345.6h460.8V0H0z" fill="#fff" id="patch_1"/><g id="axes_1"><path d="M57.6 307.584h357.12V41.472H57.6z" fill="#fff" id="patch_2"/><g id="matplotlib.axis_1"><g id="xtick_1"><g id="line2d_1"><defs><path d="M0 0v3.5" id="m48df1a975f" stroke="#000" stroke-width=".8"/></defs><use x="73.8" xlink:href="#m48df1a975f" y="307.584" stroke="#000" stroke-width=".8"/></g><text x="73.8" y="322.182" font-family="DejaVu Sans" font-size="10" font-weight="400" text-anchor="middle" id="text_1">0.0</text></g><g id="xtick_2"><use x="138.744" xlink:href="#m48df1a975f" y="307.584" stroke="#000" stroke-width=".8" id="line2d_2"/><text x="138.744" y="322.182" font-family="DejaVu Sans" font-size="10" font-weight="400" text-anchor="middle" id="text_2">0.2</text></g><g id="xtick_3"><use x="203.688" xlink:href="#m48df1a975f" y="307.584" stroke="#000" stroke-width=".8" id="line2d_3"/><text x="203.688" y="322.182" font-family="DejaVu Sans" font-size="10" font-weight="400" text-anchor="middle" id="text_3">0.4</text></g><g id="xtick_4"><use x="268.632" xlink:href="#m48df1a975f" y="307.584" stroke="#000" stroke-width=".8" id="line2d_4"/><text x="268.632" y="322.182" font-family="DejaVu Sans" font-size="10" font-weight="400" text-anchor="middle" id="text_4">0.6</text></g><g id="xtick_5"><use x="333.576" xlink:href="#m48df1a975f" y="307.584" stroke="#000" stroke-width=".8" id="line2d_5"/><text x="333.576" y="322.182" font-family="DejaVu Sans" font-size="10" font-weight="400" text-anchor="middle" id="text_5">0.8</text></g><g id="xtick_6"><use x="398.52" xlink:href="#m48df1a975f" y="307.584" stroke="#000" stroke-width=".8" id="line2d_6"/><text x="398.52" y="322.182" font-family="DejaVu Sans" font-size="10" font-weight="400" text-anchor="middle" id="text_6">1.0</text></g><text x="236.16" y="335.861" font-family="DejaVu Sans" font-size="10" font-weight="400" text-anchor="middle" id="text_7">Input Coin&apos;s Heads Probability (λ)</text></g><g id="matplotlib.axis_2"><g id="ytick_1"><g id="line2d_7"><defs><path d="M0 0h-3.5" id="m15a33dc699" stroke="#000" stroke-width=".8"/></defs><use x="57.6" xlink:href="#m15a33dc699" y="295.5" stroke="#000" stroke-width=".8"/></g><text x="50.6" y="299.299" font-family="DejaVu Sans" font-size="10" font-weight="400" text-anchor="end" id="text_8">0.00</text></g><g id="ytick_2"><use x="57.6" xlink:href="#m15a33dc699" y="263.833" stroke="#000" stroke-width=".8" id="line2d_8"/><text x="50.6" y="267.633" font-family="DejaVu Sans" font-size="10" font-weight="400" text-anchor="end" id="text_9">0.05</text></g><g id="ytick_3"><use x="57.6" xlink:href="#m15a33dc699" y="232.167" stroke="#000" stroke-width=".8" id="line2d_9"/><text x="50.6" y="235.966" font-family="DejaVu Sans" font-size="10" font-weight="400" text-anchor="end" id="text_10">0.10</text></g><g id="ytick_4"><use x="57.6" xlink:href="#m15a33dc699" y="200.5" stroke="#000" stroke-width=".8" id="line2d_10"/><text x="50.6" y="204.3" font-family="DejaVu Sans" font-size="10" font-weight="400" text-anchor="end" id="text_11">0.15</text></g><g id="ytick_5"><use x="57.6" xlink:href="#m15a33dc699" y="168.834" stroke="#000" stroke-width=".8" id="line2d_11"/><text x="50.6" y="172.633" font-family="DejaVu Sans" font-size="10" font-weight="400" text-anchor="end" id="text_12">0.20</text></g><g id="ytick_6"><use x="57.6" xlink:href="#m15a33dc699" y="137.167" stroke="#000" stroke-width=".8" id="line2d_12"/><text x="50.6" y="140.967" font-family="DejaVu Sans" font-size="10" font-weight="400" text-anchor="end" id="text_13">0.25</text></g><g id="ytick_7"><use x="57.6" xlink:href="#m15a33dc699" y="105.501" stroke="#000" stroke-width=".8" id="line2d_13"/><text x="50.6" y="109.3" font-family="DejaVu Sans" font-size="10" font-weight="400" text-anchor="end" id="text_14">0.30</text></g><g id="ytick_8"><use x="57.6" xlink:href="#m15a33dc699" y="73.835" stroke="#000" stroke-width=".8" id="line2d_14"/><text x="50.6" y="77.634" font-family="DejaVu Sans" font-size="10" font-weight="400" text-anchor="end" id="text_15">0.35</text></g><g id="ytick_9"><use x="57.6" xlink:href="#m15a33dc699" y="42.168" stroke="#000" stroke-width=".8" id="line2d_15"/><text x="50.6" y="45.967" font-family="DejaVu Sans" font-size="10" font-weight="400" text-anchor="end" id="text_16">0.40</text></g><text transform="rotate(-90 22.255 174.528)" x="22.255" y="174.528" font-family="DejaVu Sans" font-size="10" font-weight="400" text-anchor="middle" id="text_17">Coin Flips Needed</text></g><path clip-path="url(#pa1028d8b9a)" d="M73.833 84.425l3.28 3.532 3.278 3.489 3.28 3.447 3.28 3.406 3.278 3.365 3.28 3.326 3.28 3.285 3.278 3.247 3.28 3.209 3.28 3.17 3.278 3.134 3.28 3.097 3.28 3.06 3.278 3.025 3.28 2.99 3.28 2.954 3.278 2.92 3.28 2.887 3.28 2.853 3.279 2.82 3.279 2.788 3.28 2.756 3.279 2.725 3.279 2.693 3.28 2.662 3.279 2.633 3.279 2.602 3.28 2.573 3.279 2.544 3.279 2.515 3.28 2.486 3.279 2.46 3.279 2.43 3.28 2.405 3.279 2.377 3.279 2.35 3.28 2.325 3.279 2.299 3.279 2.273 3.28 2.248 3.279 2.224 3.279 2.198 3.28 2.175 3.279 2.15 3.279 2.128 3.28 2.104 3.279 2.081 3.279 2.059 3.28 2.036 3.279 2.014 3.279 1.992 3.28 1.97 3.279 1.95 3.279 1.928 3.28 1.907 3.279 1.887 3.279 1.867 3.28 1.847 3.279 1.827 3.28 1.808 3.278 1.788 3.28 1.77 3.28 1.75 3.278 1.733 3.28 1.713 3.28 1.696 3.278 1.678 3.28 1.66 3.28 1.643 3.278 1.626 3.28 1.608 3.28 1.592 3.278 1.575 3.28 1.559 3.28 1.542 3.278 1.526 3.28 1.511 3.28 1.495 3.278 1.48 3.28 1.464 3.28 1.449 3.279 1.434 3.279 1.42 3.28 1.404 3.279 1.39 3.279 1.377 3.28 1.362 3.279 1.348 3.279 1.335 3.28 1.32 3.279 1.308 3.279 1.295 3.28 1.28 3.279 1.269 3.279 1.255 3.28 1.243 3.279 1.23 3.279 1.218 3.28 1.205" fill="none" stroke="#1f77b4" stroke-linecap="square" stroke-width="1.5" id="line2d_16"/><path clip-path="url(#pa1028d8b9a)" d="M73.833 82.701l3.28-8.866L80.39 90.3l3.28 10.133 3.28-46.866 3.278 48.133 3.28-5.067 3.28-34.2 3.278 25.334 3.28-1.267 3.28-16.466 3.278 32.933 3.28-43.067 3.28 35.467 3.278-10.134 3.28 21.534 3.28 16.466 3.278 5.067 3.28-39.267 3.28 7.6 3.279 3.8 3.279 19 3.28-19 3.279-16.466 3.279 5.066 3.28 12.667 3.279-20.267 3.279 15.2 3.28 1.267 3.279 32.933 3.279-24.066 3.28 10.133 3.279 22.8 3.279-38 3.28-2.533 3.279 8.866 3.279 10.134 3.28-1.267 3.279 2.533 3.279-13.933 3.28-10.133 3.279 35.466 3.279-22.8 3.28-5.066 3.279-6.334 3.279 11.4 3.28 5.067 3.279-21.533 3.279 13.933 3.28-12.667 3.279 29.134 3.279-13.934 3.28 11.4 3.279-27.866 3.279 48.133 3.28-12.667h3.279l3.279-11.4 3.28 12.667 3.279-3.8 3.28-21.533 3.278 12.666 3.28-22.8 3.28 20.267 3.278 1.267 3.28-11.4 3.28 8.866 3.278-2.533 3.28-1.267 3.28 17.734 3.278-22.8 3.28 32.933 3.28-39.267 3.278 19 3.28 32.933 3.28-19 3.278-12.666 3.28 31.666 3.28-20.266 3.278-31.667 3.28 22.8 3.28-1.266 3.279-3.8 3.279 6.333 3.28 16.466 3.279-15.2 3.279 1.267 3.28 5.067 3.279 1.267 3.279 2.533h3.28l3.279 13.933 3.279 3.8 3.28-8.867 3.279 6.334 3.279-17.733 3.28-3.8 3.279-16.467 3.279 40.533 3.28 5.067" fill="none" stroke="#ff7f0e" stroke-linecap="square" stroke-width="1.5" id="line2d_17"/><path d="M57.6 307.584V41.472" fill="none" stroke="#000" stroke-linecap="square" stroke-width=".8" id="patch_3"/><path d="M414.72 307.584V41.472" fill="none" stroke="#000" stroke-linecap="square" stroke-width=".8" id="patch_4"/><path d="M57.6 307.584h357.12" fill="none" stroke="#000" stroke-linecap="square" stroke-width=".8" id="patch_5"/><path d="M57.6 41.472h357.12" fill="none" stroke="#000" stroke-linecap="square" stroke-width=".8" id="patch_6"/><text x="236.16" y="35.472" font-family="DejaVu Sans" font-size="12" font-weight="400" text-anchor="middle" id="text_18">Coin Flips for (1/3)*x/(1+(1/3)*x)</text><g id="legend_1"><path d="M185.01 78.828h222.71q2 0 2-2V48.472q0-2-2-2H185.01q-2 0-2 2v28.356q0 2 2 2z" fill="#fff" opacity=".8" stroke="#ccc" id="patch_7"/><path d="M187.01 54.57h20" fill="none" stroke="#1f77b4" stroke-linecap="square" stroke-width="1.5" id="line2d_18"/><text x="215.009" y="58.07" font-family="DejaVu Sans" font-size="10" font-weight="400" id="text_19">Coin Flip Lower Bound</text><path d="M187.01 69.249h20" fill="none" stroke="#ff7f0e" stroke-linecap="square" stroke-width="1.5" id="line2d_20"/><text x="215.009" y="72.749" font-family="DejaVu Sans" font-size="10" font-weight="400" id="text_20">Avg. Coins Flipped (1/3)*x/(1+(1/3)*x)</text></g></g></g><defs><clipPath id="pa1028d8b9a"><path d="M57.6 41.472h357.12v266.112H57.6z"/></clipPath></defs></svg>
